**kern	**kern	**kern	**kern
*staff3	*staff4	*staff1	*staff2
*clefF4	*clefF4	*clefG2	*clefG2
*k[f#c#]	*k[f#c#]	*k[f#c#]	*k[f#c#]
*M2/4	*M2/4	*M2/4	*M2/4
*D:	*D:	*D:	*D:
=-	=-	=-	=-
*	*clefF4	*clefF4	*
*M2/4	*M2/4	*M2/4	*M2/4
2r	8DD'L	4D 4F#	2r
.	8D'J	.	.
.	8C#'L	(8.DL 8.F#	.
.	8BB'J	.	.
.	.	16GJk)	.
=248	=248	=248	=248
2r	8AA'L	4.C# 4.E 4.A	2r
.	8GG'J	.	.
.	8FF#'L	.	.
.	8EE'J	(16BLL	.
.	.	16c#JJ)	.
=249	=249	=249	=249
2r	8DDL 8D	8F#L 8d	2r
.	8CC#J 8C#	8F#J 8d	.
.	4BBB 4BB	8F#L 8d	.
.	.	8G#J 8d 8e	.
=250	=250	=250	=250
2r	2AAA; 2AA;	[4A; 4d; [4e;	2r
.	.	4A;] 4c#; 4e;]	.
*	*	*clefG2	*
=	=	=	=
*M3/8	*M3/8	*M3/8	*M3/8
4.r	8.d 8.f#	8.a 8.dd 8.ff#	4.r
.	16r	32r	.
.	.	32ff#LLK	.
.	8r	16.gg	.
.	.	32gg#JJk	.
=251	=251	=251	=251
4.r	8.G 8.A 8.c# 8.e	8.a 8.cc# 8.ee 8.aa	4.r
.	16r	32r	.
.	.	32bb-LLK	.
.	8r	16.bb	.
.	.	32ccc#JJk	.
=252	=252	=252	=252
4.r	8F#L 8A 8d 8f#	16dddLK	4.r
.	.	8ddd	.
*	*clefG2	*	*
.	8B 8f#	.	.
.	.	8ddd#	.
.	8BJ 8d 8e 8g#	.	.
.	.	[16eeeJk	.
=253	=253	=253	=253
4.r	4.A; 4.c#; 4.e; 4.a;	(32eeeLLL]	4.r
.	.	32ccc#	.
.	.	32bb	.
.	.	32aaJJJ)	.
.	.	4aa;	.
=254	=254	=254	=254
*-	*-	*-	*-
